!!!!SEGMENT: pl-wn--sd-xvi-qu-273--077_gomolka-mikolaj--pana-ja-wzywac-bede-dokadem-zywy.krn
!!!cenid: 15xx:282
!!!COM: Gomółka, Mikołaj
!!!COM-rismid: pe30013343
!!!CDT: ~1535->1591/04/30
!!!CNT: Polish
!!!GTL: Melodiae na psalterz polski
!!!OTL: LXXVII. Pana ja wzywać będę, dokądem żywy,
!!!ONB: Voce mea ad dominum
!!!PDT: 1580
!!!AGN: Sacred
!!!SMS-siglum: PL-Wn
!!!SMS-shelfmark: SD XVI.Qu.273
!!!SMS-shelfwork: 077 G
!!!NIFC-rismid:
!!!ONB-nifc: Melodiae na psalterz polski
**kern	**text	**text	**kern	**text	**text	**kern	**text	**text	**kern	**text	**text
*part4	*part4	*part4	*part3	*part3	*part3	*part2	*part2	*part2	*part1	*part1	*part1
*staff4	*staff4	*staff4	*staff3	*staff3	*staff3	*staff2	*staff2	*staff2	*staff1	*staff1	*staff1
*clefF3	*	*	*clefC3	*	*	*clefC2	*	*	*clefG2	*	*
*k[B-b-]	*	*	*k[b-]	*	*	*k[b-]	*	*	*k[b-]	*	*
*c:	*	*	*c:	*	*	*c:	*	*	*c:	*	*
*M4/2	*	*	*M4/2	*	*	*M4/2	*	*	*M4/2	*	*
*met(C|)	*	*	*met(C|)	*	*	*met(C|)	*	*	*met(C|)	*	*
*>[A,A,B]	*	*	*>[A,A,B]	*	*	*>[A,A,B]	*	*	*>[A,A,B]	*	*
*>A	*	*	*>A	*	*	*>A	*	*	*>A	*	*
=1-	=1-	=1-	=1-	=1-	=1-	=1-	=1-	=1-	=1-	=1-	=1-
1G	PA-	A	1G	Paná	A	1d	Paná	A	1g	Pa-	A
4d	.	.	2.G	ia	on	2.d	ia	on	2b-/	-ná ia	on
4c	-ná	on	.	.	.	.	.	.	.	.	.
4B-	.	.	.	.	.	.	.	.	2cc	.	wuſʒy
4A	ia	wu-	4A	wʒy-	wuſʒy	4c	wʒy-	wu-	.	.	.
=2-	=2-	=2-	=2-	=2-	=2-	=2-	=2-	=2-	=2-	=2-	=2-
4G	wʒy-	-ſʒy	2B-	wáć	ſwé	4B-	.	-ſʒy	2dd	wʒy-	.
4F	.	.	.	.	.	4A	-wáć	.	.	.	.
2E	-wáć	ſwé	2c/	bę-	.	2G	.	ſwé	2ee	-wáć	ſwé
2D	bę-	pſʒyy-	2d	-dę,	pſʒyy-	2A	będę,	pſʒyy-	2ff	bę-	pſʒyy-
2C#X	-dę,	.	2e	.	(-mie)	2a	.	.	2ee	-dę,	(-mie)
=3-	=3-	=3-	=3-	=3-	=3-	=3-	=3-	=3-	=3-	=3-	=3-
2D	.	(-mie)	2f	do-	móy	2.a	do-	-mie	2dd	do-	móy
2D	do-	móy	2d	-ką-	.	.	.	.	2ff	-ką-	.
.	.	.	.	.	.	4b-	-ką-	móy	.	.	.
2E	-ką-	.	2g	-dem	gł(os)	2cc	dem	.	2ee	-dem	gł(os)
2F/	-dem	gł(os)	2f	.	płácʒ-	2a	.	gł(os)	1dd	ʒ̇y-	płácʒ-
=4-	=4-	=4-	=4-	=4-	=4-	=4-	=4-	=4-	=4-	=4-	=4-
2G	.	płá-	1e	ʒ̇y-	-li-	2b-	ʒ̇y-	.	.	.	.
2A	ʒ̇y-	.	.	.	.	4a	.	płácʒ-	2cc#X	-wy:	-li-
.	.	.	.	.	.	4g	-wy:	.	.	.	.
!LO:SIC:v= w drugiej zwrotce brakuje ostatniej sylaby w basie	!	!	!	!	!	!	!	!	!	!	!
1D	-wy;	-cʒli.	1d	-wy,	-wy.	1f#X	.	-liwy.	1dd	.	-wy.
*>B	*	*	*>B	*	*	*>B	*	*	*>B	*	*
=5:|!	=5:|!	=5:|!	=5:|!	=5:|!	=5:|!	=5:|!	=5:|!	=5:|!	=5:|!	=5:|!	=5:|!
1G	Do	.	1g	Do	.	1b-	Do	.	1dd	Do	.
2.B-	te-	.	2.f	te-	.	2.b-	.	.	2.dd	tegom	.
4B-	-gom	.	4d	-gom	.	4g	tegom	.	4dd	.	.
=6-	=6-	=6-	=6-	=6-	=6-	=6-	=6-	=6-	=6-	=6-	=6-
2A	.	.	2e	ſye	.	2a	.	.	2cc#X	ſye	.
2F#X/	ſye ia	.	2d	ia	.	2a	ſye ia	.	2dd	ia	.
!!LO:PB:g=original
2G	u-	.	2d	u-	.	2g	u-	.	2b-/	u-	.
2A	-ćiekł	.	2c/	-ćiekł	.	2e/	-ćiekł	.	2ccny	-ćiekł	.
=7-	=7-	=7-	=7-	=7-	=7-	=7-	=7-	=7-	=7-	=7-	=7-
2.D	cʒáſu	.	2.f	cʒáſu	.	2d	cʒá-	.	2.dd	cʒáſu	.
.	.	.	.	.	.	4b-	-ſu	.	.	.	.
4D	-ſu	.	4f	trud-	.	4a	trud-	.	4dd	trud-	.
2E-X	trud-	.	1e-X	-noś-	.	4g	.	.	2cc	-no-	.
.	.	.	.	.	.	4f	-noś-	.	.	.	.
2E-	-nóś-	.	.	.	.	2g	-ći,	.	1b-	-śći,	.
=8-	=8-	=8-	=8-	=8-	=8-	=8-	=8-	=8-	=8-	=8-	=8-
1F	-ći,	.	2d	-ći,	.	2.f	.	.	.	.	.
.	.	.	2c/	Do	.	.	.	.	2a	.	.
.	.	.	.	.	.	4e/	Do	.	.	.	.
1BB-	.	.	1B-	te-	.	1d	tegom	.	1b-	Do	.
=9-	=9-	=9-	=9-	=9-	=9-	=9-	=9-	=9-	=9-	=9-	=9-
1D	Do	.	2r	.	.	1f	.	.	1a	te-	.
.	.	.	2d	-gom	.	.	.	.	.	.	.
2.F/	te-	.	2.c/	ręce	.	2.f	rę-	.	2.a	-gom	.
4F/	-gom	.	4c/	śćią-	.	4f	-ce	.	4a	rę-	.
=10-	=10-	=10-	=10-	=10-	=10-	=10-	=10-	=10-	=10-	=10-	=10-
2.G	.	.	1B-	.	.	1d	śćią-	.	2b-/	-ce	.
.	.	.	.	.	.	.	.	.	2g	śćią-	.
4F/	ręce	.	.	.	.	.	.	.	.	.	.
4E-X	śćią-	.	2B-	-gał	.	2g	-gał	.	1ee	-gał	.
4D	.	.	.	.	.	.	.	.	.	.	.
2C	-gał	.	2c/	w	.	2e/	w	.	.	.	.
=11-	=11-	=11-	=11-	=11-	=11-	=11-	=11-	=11-	=11-	=11-	=11-
2.BB-	.	.	1.d	nocné	.	1.f	.	.	2.dd	w	.
4C	w noc-	.	.	.	.	.	.	.	4cc	no-	.
4D	.	.	.	.	.	.	.	.	2b-/	-cné	.
4E	-né	.	.	.	.	.	.	.	.	.	.
2F/	ćiem-	.	1c	ćiem-	.	2f	nocné	.	1a	.	.
=12-	=12-	=12-	=12-	=12-	=12-	=12-	=12-	=12-	=12-	=12-	=12-
2C	.	.	.	.	.	2e-X/	ćiem-	.	.	.	.
2E-X	-no-	.	2G	.	.	2c	-no-	.	1g	ćiem-	.
1D	-ści.	.	2B-	-no-	.	1d	-ści.	.	.	.	.
.	.	.	2A	-ści.	.	.	.	.	2f	-noś-	.
=13-	=13-	=13-	=13-	=13-	=13-	=13-	=13-	=13-	=13-	=13-	=13-
000G\	.	.	000G/	.	.	000d/	.	.	000g/	-ci.	.
==-	==-	==-	==-	==-	==-	==-	==-	==-	==-	==-	==-
*-	*-	*-	*-	*-	*-	*-	*-	*-	*-	*-	*-
!!!RDF**kern: l = terminal long
!!!system-decoration: s1,s2,s3,s4
!!!ENC: Leszek Kubiak
!!!END: data 2020-02-20
!!!URL-scan: https://polona.pl/item/melodiae-na-psalterz-polski,Nzk3MTM4ODQ/182 Scan on Polona
!!!IIIF: https://polona.pl/iiif/item/Nzk3MTM4ODQ/manifest.json
